!!!OTL: Sanctissima s. mater
**kern
*staff1
=1-
*clefF4
*k[b-]
2r
2G\
2G\
2G\
1B-;
=2
2r
2BB-/
2F\
2G\
1D;
=3
1BB-
1F
1G
1D
=4
2r
2D\
2G\
2F\
1BB-
=5
2r
2BB-/
2F\
2G\
1D
=6
2BB-/
1C
2E-\
1D
=7
0GG
==
*-
!!title: @{OTL}, @{GTL}, ed. @{ENC}
!!!pag:
!!!GTL: Hymnbook D
!!!EFL: 
!!!YEM: Creative Commons CC/BY/NC/SA 4.0
!!!ENC: Marcin Konik
!!!END: 2015-0m-dd
!!!EED: Marcin Konik
!!!EEV: 
!!!ONB: Encoded in vim by Marcin Konik
!!!CharacterEncoding: utf-8
!!!RDF**kern: l=long note in original notation
!!!RDF**kern: i=editorial accidental
!!muse2ps: z14jc180F
!!!COM: Anonim
!!!CDT: [?]
!!!TXO: Polish
!!!ODT: 
!!!GTL: Hymnbook D
!!!ARL: Opactwo św. Wojciecha, Staniątki 
!!!voices:	1
